resources/images/auth-connect-wallet-dark.svg

<svg width="213" height="83" viewBox="0 0 213 83" fill="none" xmlns="http://www.w3.org/2000/svg">
<path d="M0 13H112C116.418 13 120 16.5817 120 21V45C120 49.4183 116.418 53 112 53H0" stroke="url(#paint0_linear_22990_164118)"/>
<path d="M0 1H200C206.627 1 212 6.37258 212 13V53C212 59.6274 206.627 65 200 65H0" stroke="url(#paint1_linear_22990_164118)"/>
<path d="M100.647 26.0907L102.815 30.3087L106.912 30.7066C107.393 30.7862 107.554 31.2637 107.233 31.5821L103.859 34.9247L105.145 39.461C105.225 39.859 104.823 40.3365 104.341 40.0977L100.165 37.9489L96.0685 40.0181C95.8276 40.1773 95.185 39.9385 95.3456 39.3814L96.6307 34.7655L93.177 31.5821C92.9361 31.2637 92.8558 30.7862 93.4983 30.7066L97.5946 30.3087L99.7632 26.0907C100.004 25.6132 100.406 25.6928 100.647 26.0907Z" stroke="#788A98" stroke-width="1.6" stroke-linecap="round" stroke-linejoin="round"/>
<rect x="132.5" y="13.5" width="39" height="39" rx="7.5" fill="#2C3139" stroke="#8692FF"/>
<rect x="164" y="45" width="15" height="15" rx="4" fill="#8692FF"/>
<path d="M169.5 50.44C169.887 50.2867 170.273 50.09 170.66 49.85C171.053 49.61 171.4 49.3267 171.7 49H172.55V55.93H171.34V50.62C171.16 50.76 170.933 50.8967 170.66 51.03C170.387 51.1633 170.123 51.2733 169.87 51.36L169.5 50.44Z" fill="white"/>
<path d="M162.802 21.9004L153.438 28.934L155.169 24.7843L162.802 21.9004Z" fill="#E2761B" stroke="#E2761B" stroke-width="0.0951777" stroke-linecap="round" stroke-linejoin="round"/>
<path d="M141.188 21.9004L150.477 29.0006L148.83 24.7843L141.188 21.9004Z" fill="#E4761B" stroke="#E4761B" stroke-width="0.0951777" stroke-linecap="round" stroke-linejoin="round"/>
<path d="M159.432 38.2031L156.938 42.0673L162.274 43.5521L163.808 38.2888L159.432 38.2031Z" fill="#E4761B" stroke="#E4761B" stroke-width="0.0951777" stroke-linecap="round" stroke-linejoin="round"/>
<path d="M140.195 38.2888L141.72 43.5521L147.056 42.0673L144.562 38.2031L140.195 38.2888Z" fill="#E4761B" stroke="#E4761B" stroke-width="0.0951777" stroke-linecap="round" stroke-linejoin="round"/>
<path d="M146.753 31.6752L145.266 33.95L150.564 34.1879L150.376 28.4297L146.753 31.6752Z" fill="#E4761B" stroke="#E4761B" stroke-width="0.0951777" stroke-linecap="round" stroke-linejoin="round"/>
<path d="M157.23 31.6755L153.56 28.3633L153.438 34.1882L158.727 33.9502L157.23 31.6755Z" fill="#E4761B" stroke="#E4761B" stroke-width="0.0951777" stroke-linecap="round" stroke-linejoin="round"/>
<path d="M147.055 42.0686L150.236 40.4982L147.488 38.3281L147.055 42.0686Z" fill="#E4761B" stroke="#E4761B" stroke-width="0.0951777" stroke-linecap="round" stroke-linejoin="round"/>
<path d="M153.75 40.4982L156.941 42.0686L156.498 38.3281L153.75 40.4982Z" fill="#E4761B" stroke="#E4761B" stroke-width="0.0951777" stroke-linecap="round" stroke-linejoin="round"/>
<path d="M156.948 42.0685L153.758 40.498L154.012 42.6015L153.984 43.4866L156.948 42.0685Z" fill="#D7C1B3" stroke="#D7C1B3" stroke-width="0.0951777" stroke-linecap="round" stroke-linejoin="round"/>
<path d="M147.062 42.0685L150.027 43.4866L150.008 42.6015L150.244 40.498L147.062 42.0685Z" fill="#D7C1B3" stroke="#D7C1B3" stroke-width="0.0951777" stroke-linecap="round" stroke-linejoin="round"/>
<path d="M150.076 36.9373L147.422 36.1474L149.295 35.2812L150.076 36.9373Z" fill="#233447" stroke="#233447" stroke-width="0.0951777" stroke-linecap="round" stroke-linejoin="round"/>
<path d="M153.922 36.9373L154.703 35.2812L156.585 36.1474L153.922 36.9373Z" fill="#233447" stroke="#233447" stroke-width="0.0951777" stroke-linecap="round" stroke-linejoin="round"/>
<path d="M147.057 42.0673L147.508 38.2031L144.562 38.2888L147.057 42.0673Z" fill="#CD6116" stroke="#CD6116" stroke-width="0.0951777" stroke-linecap="round" stroke-linejoin="round"/>
<path d="M156.484 38.2031L156.936 42.0673L159.43 38.2888L156.484 38.2031Z" fill="#CD6116" stroke="#CD6116" stroke-width="0.0951777" stroke-linecap="round" stroke-linejoin="round"/>
<path d="M158.727 33.9492L153.438 34.1872L153.927 36.9378L154.708 35.2817L156.59 36.1478L158.727 33.9492Z" fill="#CD6116" stroke="#CD6116" stroke-width="0.0951777" stroke-linecap="round" stroke-linejoin="round"/>
<path d="M147.412 36.1478L149.294 35.2817L150.066 36.9378L150.564 34.1872L145.266 33.9492L147.412 36.1478Z" fill="#CD6116" stroke="#CD6116" stroke-width="0.0951777" stroke-linecap="round" stroke-linejoin="round"/>
<path d="M145.266 33.9492L147.487 38.3274L147.412 36.1478L145.266 33.9492Z" fill="#E4751F" stroke="#E4751F" stroke-width="0.0951777" stroke-linecap="round" stroke-linejoin="round"/>
<path d="M156.586 36.1478L156.492 38.3274L158.723 33.9492L156.586 36.1478Z" fill="#E4751F" stroke="#E4751F" stroke-width="0.0951777" stroke-linecap="round" stroke-linejoin="round"/>
<path d="M150.561 34.1875L150.062 36.9381L150.684 40.1837L150.825 35.9102L150.561 34.1875Z" fill="#E4751F" stroke="#E4751F" stroke-width="0.0951777" stroke-linecap="round" stroke-linejoin="round"/>
<path d="M153.434 34.1875L153.18 35.9007L153.293 40.1837L153.923 36.9381L153.434 34.1875Z" fill="#E4751F" stroke="#E4751F" stroke-width="0.0951777" stroke-linecap="round" stroke-linejoin="round"/>
<path d="M153.927 36.9384L153.297 40.184L153.749 40.4981L156.497 38.328L156.591 36.1484L153.927 36.9384Z" fill="#F6851B" stroke="#F6851B" stroke-width="0.0951777" stroke-linecap="round" stroke-linejoin="round"/>
<path d="M147.422 36.1484L147.497 38.328L150.245 40.4981L150.697 40.184L150.076 36.9384L147.422 36.1484Z" fill="#F6851B" stroke="#F6851B" stroke-width="0.0951777" stroke-linecap="round" stroke-linejoin="round"/>
<path d="M153.972 43.4865L154.001 42.6014L153.765 42.392H150.217L150.001 42.6014L150.019 43.4865L147.055 42.0684L148.09 42.925L150.189 44.4002H153.794L155.902 42.925L156.937 42.0684L153.972 43.4865Z" fill="#C0AD9E" stroke="#C0AD9E" stroke-width="0.0951777" stroke-linecap="round" stroke-linejoin="round"/>
<path d="M153.746 40.4977L153.294 40.1836H150.687L150.235 40.4977L150 42.6011L150.216 42.3917H153.765L154 42.6011L153.746 40.4977Z" fill="#161616" stroke="#161616" stroke-width="0.0951777" stroke-linecap="round" stroke-linejoin="round"/>
<path d="M163.199 29.3909L163.999 25.5076L162.804 21.9004L153.75 28.6961L157.232 31.6751L162.155 33.1314L163.246 31.8465L162.776 31.5038L163.529 30.809L162.945 30.3522L163.698 29.7716L163.199 29.3909Z" fill="#763D16" stroke="#763D16" stroke-width="0.0951777" stroke-linecap="round" stroke-linejoin="round"/>
<path d="M140 25.5076L140.8 29.3909L140.292 29.7716L141.045 30.3522L140.471 30.809L141.224 31.5038L140.753 31.8465L141.835 33.1314L146.758 31.6751L150.24 28.6961L141.186 21.9004L140 25.5076Z" fill="#763D16" stroke="#763D16" stroke-width="0.0951777" stroke-linecap="round" stroke-linejoin="round"/>
<path d="M162.156 33.132L157.234 31.6758L158.731 33.9505L156.5 38.3287L159.436 38.2906H163.813L162.156 33.132Z" fill="#F6851B" stroke="#F6851B" stroke-width="0.0951777" stroke-linecap="round" stroke-linejoin="round"/>
<path d="M146.755 31.6758L141.833 33.132L140.195 38.2906H144.562L147.489 38.3287L145.268 33.9505L146.755 31.6758Z" fill="#F6851B" stroke="#F6851B" stroke-width="0.0951777" stroke-linecap="round" stroke-linejoin="round"/>
<path d="M153.44 34.1887L153.75 28.697L155.181 24.7852H148.828L150.24 28.697L150.569 34.1887L150.682 35.9209L150.692 40.1849H153.299L153.318 35.9209L153.44 34.1887Z" fill="#F6851B" stroke="#F6851B" stroke-width="0.0951777" stroke-linecap="round" stroke-linejoin="round"/>
<g clip-path="url(#clip0_22990_164118)">
<circle cx="192.5" cy="27.0312" r="2" transform="rotate(90 192.5 27.0312)" fill="#788A98"/>
<circle cx="192.5" cy="33.0312" r="2" transform="rotate(90 192.5 33.0312)" fill="#788A98"/>
<circle cx="192.5" cy="39.0312" r="2" transform="rotate(90 192.5 39.0312)" fill="#788A98"/>
</g>
<path d="M151.991 57C152.011 57.3922 151.991 58.3333 151.991 58.7267C152.033 70.9793 142.412 81.161 130 82" stroke="#E3E8EA" stroke-width="2" stroke-linecap="round" stroke-linejoin="round"/>
<path d="M146.781 62.2333L152.015 57L157.248 62.2333" stroke="#E3E8EA" stroke-width="2" stroke-linecap="round" stroke-linejoin="round"/>
<defs>
<linearGradient id="paint0_linear_22990_164118" x1="112.023" y1="33" x2="-3.73189e-07" y2="33" gradientUnits="userSpaceOnUse">
<stop stop-color="#3D444D"/>
<stop offset="1" stop-color="#D1D3E3" stop-opacity="0"/>
</linearGradient>
<linearGradient id="paint1_linear_22990_164118" x1="197.908" y1="33" x2="-6.593e-07" y2="33" gradientUnits="userSpaceOnUse">
<stop stop-color="#3D444D"/>
<stop offset="1" stop-color="#D1D3E3" stop-opacity="0"/>
</linearGradient>
<clipPath id="clip0_22990_164118">
<rect x="200" y="41" width="16" height="16" rx="8" transform="rotate(-180 200 41)" fill="white"/>
</clipPath>
</defs>
</svg>

<svg width="213" height="83" viewBox="0 0 213 83" fill="none" xmlns="http://www.w3.org/2000/svg"><path d="M0 13h112a8 8 0 0 1 8 8v24a8 8 0 0 1-8 8H0" stroke="url(#paint0_linear_22990_164118)"/><path d="M0 1h200c6.627 0 12 5.373 12 12v40c0 6.627-5.373 12-12 12H0" stroke="url(#paint1_linear_22990_164118)"/><path d="m100.647 26.09 2.168 4.219 4.097.398c.481.08.642.557.321.875l-3.374 3.343 1.286 4.536c.08.398-.322.876-.804.637l-4.176-2.15-4.097 2.07c-.24.16-.883-.08-.722-.637l1.285-4.615-3.454-3.184c-.24-.318-.321-.796.321-.875l4.097-.398 2.168-4.218c.241-.478.643-.398.884 0Z" stroke="#788A98" stroke-width="1.6" stroke-linecap="round" stroke-linejoin="round"/><rect x="132.5" y="13.5" width="39" height="39" rx="7.5" fill="#2C3139" stroke="#8692FF"/><rect x="164" y="45" width="15" height="15" rx="4" fill="#8692FF"/><path d="M169.5 50.44c.387-.153.773-.35 1.16-.59.393-.24.74-.523 1.04-.85h.85v6.93h-1.21v-5.31a3.9 3.9 0 0 1-.68.41 6.923 6.923 0 0 1-.79.33l-.37-.92Z" fill="white"/><path d="m162.802 21.9-9.364 7.034 1.731-4.15 7.633-2.884Z" fill="#E2761B" stroke="#E2761B" stroke-width="0.0951777" stroke-linecap="round" stroke-linejoin="round"/><path d="m141.188 21.9 9.289 7.1-1.647-4.216-7.642-2.884ZM159.432 38.203l-2.494 3.864 5.336 1.485 1.534-5.263-4.376-.086ZM140.195 38.289l1.525 5.263 5.336-1.485-2.494-3.864-4.367.086Z" fill="#E4761B" stroke="#E4761B" stroke-width="0.0951777" stroke-linecap="round" stroke-linejoin="round"/><path d="m146.753 31.675-1.487 2.275 5.298.238-.188-5.758-3.623 3.245ZM157.23 31.675l-3.67-3.312-.122 5.825 5.289-.238-1.497-2.275ZM147.055 42.069l3.181-1.57-2.748-2.17-.433 3.74ZM153.75 40.498l3.191 1.57-.443-3.74-2.748 2.17Z" fill="#E4761B" stroke="#E4761B" stroke-width="0.0951777" stroke-linecap="round" stroke-linejoin="round"/><path d="m156.948 42.069-3.19-1.571.254 2.104-.028.885 2.964-1.419ZM147.062 42.069l2.965 1.418-.019-.886.236-2.103-3.182 1.57Z" fill="#D7C1B3" stroke="#D7C1B3" stroke-width="0.0951777" stroke-linecap="round" stroke-linejoin="round"/><path d="m150.076 36.937-2.654-.79 1.873-.866.781 1.656ZM153.922 36.937l.781-1.656 1.882.866-2.663.79Z" fill="#233447" stroke="#233447" stroke-width="0.0951777" stroke-linecap="round" stroke-linejoin="round"/><path d="m147.057 42.067.451-3.864-2.946.086 2.495 3.778ZM156.484 38.203l.452 3.864 2.494-3.778-2.946-.086ZM158.727 33.95l-5.289.237.489 2.75.781-1.655 1.882.866 2.137-2.199ZM147.412 36.148l1.882-.866.772 1.656.498-2.75-5.298-.239 2.146 2.199Z" fill="#CD6116" stroke="#CD6116" stroke-width="0.0951777" stroke-linecap="round" stroke-linejoin="round"/><path d="m145.266 33.95 2.221 4.377-.075-2.18-2.146-2.198ZM156.586 36.148l-.094 2.18 2.231-4.379-2.137 2.199ZM150.561 34.188l-.499 2.75.622 3.246.141-4.274-.264-1.722ZM153.434 34.188l-.254 1.713.113 4.283.63-3.246-.489-2.75Z" fill="#E4751F" stroke="#E4751F" stroke-width="0.0951777" stroke-linecap="round" stroke-linejoin="round"/><path d="m153.927 36.938-.63 3.246.452.314 2.748-2.17.094-2.18-2.664.79ZM147.422 36.148l.075 2.18 2.748 2.17.452-.314-.621-3.246-2.654-.79Z" fill="#F6851B" stroke="#F6851B" stroke-width="0.0951777" stroke-linecap="round" stroke-linejoin="round"/><path d="m153.972 43.486.029-.885-.236-.209h-3.548l-.216.21.018.885-2.964-1.419 1.035.857 2.099 1.475h3.605l2.108-1.475 1.035-.857-2.965 1.419Z" fill="#C0AD9E" stroke="#C0AD9E" stroke-width="0.0951777" stroke-linecap="round" stroke-linejoin="round"/><path d="m153.746 40.498-.452-.314h-2.607l-.452.314L150 42.6l.216-.21h3.549l.235.21-.254-2.103Z" fill="#161616" stroke="#161616" stroke-width="0.0951777" stroke-linecap="round" stroke-linejoin="round"/><path d="m163.199 29.39.8-3.882-1.195-3.608-9.054 6.796 3.482 2.98 4.923 1.455 1.091-1.285-.47-.342.753-.695-.584-.457.753-.58-.499-.381ZM140 25.508l.8 3.883-.508.38.753.581-.574.457.753.695-.471.342 1.082 1.285 4.923-1.456 3.482-2.979-9.054-6.796L140 25.508Z" fill="#763D16" stroke="#763D16" stroke-width="0.0951777" stroke-linecap="round" stroke-linejoin="round"/><path d="m162.156 33.132-4.922-1.456 1.497 2.274-2.231 4.379 2.936-.038h4.377l-1.657-5.159ZM146.755 31.676l-4.922 1.456-1.638 5.159h4.367l2.927.038-2.221-4.379 1.487-2.274ZM153.44 34.189l.31-5.492 1.431-3.912h-6.353l1.412 3.912.329 5.492.113 1.732.01 4.264h2.607l.019-4.264.122-1.732Z" fill="#F6851B" stroke="#F6851B" stroke-width="0.0951777" stroke-linecap="round" stroke-linejoin="round"/><g clip-path="url(#clip0_22990_164118)"><circle cx="192.5" cy="27.0312" r="2" transform="rotate(90 192.5 27.0312)" fill="#788A98"/><circle cx="192.5" cy="33.0312" r="2" transform="rotate(90 192.5 33.0312)" fill="#788A98"/><circle cx="192.5" cy="39.0312" r="2" transform="rotate(90 192.5 39.0312)" fill="#788A98"/></g><path d="M151.991 57c.02.392 0 1.333 0 1.727C152.033 70.979 142.412 81.16 130 82" stroke="#E3E8EA" stroke-width="2" stroke-linecap="round" stroke-linejoin="round"/><path d="M146.781 62.233 152.015 57l5.233 5.233" stroke="#E3E8EA" stroke-width="2" stroke-linecap="round" stroke-linejoin="round"/><defs><linearGradient id="paint0_linear_22990_164118" x1="112.023" y1="33" x2="-3.73189e-07" y2="33" gradientUnits="userSpaceOnUse"><stop stop-color="#3D444D"/><stop offset="1" stop-color="#D1D3E3" stop-opacity="0"/></linearGradient><linearGradient id="paint1_linear_22990_164118" x1="197.908" y1="33" x2="-6.593e-07" y2="33" gradientUnits="userSpaceOnUse"><stop stop-color="#3D444D"/><stop offset="1" stop-color="#D1D3E3" stop-opacity="0"/></linearGradient><clipPath id="clip0_22990_164118"><rect x="200" y="41" width="16" height="16" rx="8" transform="rotate(-180 200 41)" fill="white"/></clipPath></defs></svg>
